X: 627
T:Captain O'Kane
M:6/8
L:1/8
B:O'Neill's 627
N:"Moderate"
Z:Transcribed by Ted Hastings, hastings@ndirect.co.uk
K:Em
(E/2D/2)|(B,EF) (G2 F/2E/2)|(F/2G/2A/2G/2F/2E/2) (DEF)|\
(GBG) (B/2A/2G/2F/2E/2D/2)|(B,E).E E2 (E/2D/2)|
(B,EF) (G2 F/2E/2)|(F/2G/2A/2G/2F/2E/2) (DEF)|\
(GB).B (B/2A/2G/2F/2E/2D/2)|(B,E).E E2||
(E/2F/2)|(GB).B B2 (A/2G/2)|(FA).A A2 (d/2c/2)|\
(Be^d) (e>fg)|(Be^d) e2 (e/2f/2)|
(g>fe) (d>cB)|(AF).d (DEF)|\
(GBG) (B/2A/2G/2F/2E/2D/2)|(B,E).E E2||


